icons/svg/single-number-reach_20.svg

<?xml version="1.0" encoding="UTF-8"?>
<svg width="20px" height="20px" viewBox="0 0 20 20" version="1.1" xmlns="http://www.w3.org/2000/svg" xmlns:xlink="http://www.w3.org/1999/xlink">
    <!-- Generator: Sketch 57.1 (83088) - https://sketch.com -->
    <title>single-number-reach_20</title>
    <desc>Created with Sketch.</desc>
    <g id="Icons-Webex" stroke="none" stroke-width="1" fill="none" fill-rule="evenodd">
        <g id="phone/single-number-reach_20" fill="#171B1F">
            <path d="M10.7823,0.0141 C11.3163,-0.0529 11.8513,0.1301 12.2333,0.5171 L12.2333,0.5171 L13.3783,1.6721 C13.9843,2.2861 14.1723,3.2011 13.8543,4.0051 L13.8543,4.0051 L13.2813,5.4571 C13.0013,6.1661 12.4293,6.7121 11.7103,6.9531 L11.7103,6.9531 L10.8353,7.2471 C10.7153,7.2881 10.6283,7.3971 10.6113,7.5311 C10.4383,8.9291 10.4453,10.7771 10.6293,12.4741 C10.6443,12.6061 10.7303,12.7181 10.8513,12.7581 L10.8513,12.7581 L11.7103,13.0471 C12.4293,13.2891 13.0013,13.8351 13.2813,14.5441 L13.2813,14.5441 L13.8543,15.9951 C14.1723,16.8001 13.9843,17.7151 13.3783,18.3281 L13.3783,18.3281 L12.2333,19.4831 C11.9023,19.8171 11.4623,20.0001 11.0013,20.0001 C10.9283,20.0001 10.8543,19.9951 10.7813,19.9861 C10.2463,19.9201 9.7813,19.6141 9.5083,19.1491 C8.1793,16.8931 7.4163,13.5591 7.4163,10.0001 C7.4163,6.4411 8.1793,3.1061 9.5083,0.8501 C9.7813,0.3861 10.2463,0.0801 10.7823,0.0141 Z M11.0188135,1.00097497 L10.9045113,1.0066041 C10.6778407,1.03451504 10.4858696,1.16058226 10.36991,1.35767081 C9.13942483,3.44644029 8.4163,6.60868672 8.4163,10.0001 C8.4163,13.3912732 9.13933012,16.5525989 10.370663,18.6428095 C10.4862738,18.839729 10.6779206,18.965766 10.9036612,18.9936144 C10.9389245,18.9979619 10.9720088,19.0001 11.0013,19.0001 C11.1964113,19.0001 11.3804375,18.9230556 11.5231256,18.7790743 L11.5231256,18.7790743 L12.6671444,17.6250653 C12.9950484,17.2933737 13.0963036,16.7980774 12.9241966,16.3623979 L12.9241966,16.3623979 L12.3386488,14.8796233 C12.1622815,14.4594255 11.8192372,14.1388892 11.3914254,13.9948969 L11.3914254,13.9948969 L10.5374273,13.7075651 C10.0386837,13.5426912 9.69392421,13.099429 9.63512684,12.5818949 C9.44307392,10.8106242 9.43598922,8.88613425 9.61925159,7.40524311 C9.68353706,6.8985224 10.0248181,6.46725729 10.5167981,6.29917777 L10.5167981,6.29917777 L11.3924902,6.00494551 C11.8301387,5.85825108 12.178998,5.52583359 12.3511102,5.09002098 L12.3511102,5.09002098 L12.9243945,3.63730154 C13.0962655,3.20275959 12.9949759,2.70729438 12.6681256,2.37612575 L12.6681256,2.37612575 L11.5216107,1.21959436 C11.3597076,1.0555721 11.1344345,0.977758729 10.9045113,1.0066041 Z M16.9996162,6.80472222 L17.0688,6.8625 L19.8528,9.6465 C19.9468,9.7405 19.9988,9.8675 19.9988,10.0005 C19.9988,10.1061 19.96552,10.2085 19.90408,10.293364 L19.8528,10.3535 L17.0688,13.1375 C16.9708,13.2355 16.8428,13.2845 16.7148,13.2845 C16.5868,13.2845 16.4588,13.2355 16.3618,13.1375 C16.1875778,12.9641667 16.1682198,12.6944383 16.3037259,12.4996838 L16.3618,12.4305 L18.2918,10.5005 L13.8848,10.5005 C13.6088,10.5005 13.3848,10.2765 13.3848,10.0005 C13.3848,9.75427778 13.5617877,9.55072222 13.7949619,9.50852743 L13.8848,9.5005 L18.2928,9.5005 L16.3618,7.5695 C16.1658,7.3745 16.1658,7.0585 16.3618,6.8625 C16.5351333,6.68916667 16.8048617,6.66990741 16.9996162,6.80472222 Z M0.5004,12 L5.4904,12 C5.7664,12 5.9904,12.224 5.9904,12.5 C5.9904,12.7453333 5.81341235,12.9495802 5.58023813,12.9919396 L5.4904,13 L0.5004,13 C0.2234,13 0.000400000014,12.776 0.000400000014,12.5 C0.000400000014,12.2546667 0.176597531,12.0504198 0.410298491,12.0080604 L0.5004,12 L5.4904,12 Z M5.4904,7 C5.7664,7 5.9904,7.224 5.9904,7.5 C5.9904,7.74533333 5.81341235,7.94958025 5.58023813,7.99193964 L5.4904,8 L0.5004,8 C0.2234,8 0.000400000014,7.776 0.000400000014,7.5 C0.000400000014,7.25466667 0.176597531,7.05041975 0.410298491,7.00806036 L0.5004,7 L5.4904,7 Z" id="fill"></path>
        </g>
    </g>
</svg>

<svg width="20" height="20" xmlns="http://www.w3.org/2000/svg"><path d="M10.782.014a1.732 1.732 0 011.451.503l1.145 1.155a2.18 2.18 0 01.476 2.333l-.573 1.452a2.565 2.565 0 01-1.57 1.496l-.876.294a.34.34 0 00-.224.284c-.173 1.398-.166 3.246.018 4.943a.335.335 0 00.222.284l.86.29a2.57 2.57 0 011.57 1.496l.573 1.451a2.18 2.18 0 01-.476 2.333l-1.145 1.155a1.728 1.728 0 01-1.452.503 1.71 1.71 0 01-1.273-.837C8.18 16.893 7.416 13.56 7.416 10c0-3.559.763-6.894 2.092-9.15.273-.464.738-.77 1.274-.836zm.237.987l-.114.006a.712.712 0 00-.535.35C9.14 3.448 8.416 6.61 8.416 10c0 3.391.723 6.553 1.955 8.643A.71.71 0 0011 19c.195 0 .38-.077.522-.22l1.144-1.155a1.18 1.18 0 00.257-1.263l-.585-1.482a1.57 1.57 0 00-.948-.885l-.854-.287a1.336 1.336 0 01-.902-1.126c-.192-1.771-.199-3.696-.016-5.177.065-.506.406-.938.898-1.106l.875-.294c.438-.147.787-.48.96-.915l.572-1.453a1.18 1.18 0 00-.256-1.26L11.522 1.22a.733.733 0 00-.617-.213zm5.98 5.804l.07.058 2.784 2.783a.5.5 0 01.051.647l-.051.06-2.784 2.784a.5.5 0 01-.765-.637l.058-.07 1.93-1.93h-4.407a.5.5 0 01-.09-.991l.09-.008h4.408L16.362 7.57A.5.5 0 0117 6.804zM.5 12h4.99a.5.5 0 01.09.992L5.49 13H.5a.5.5 0 01-.09-.992L.5 12h4.99zm4.99-5a.5.5 0 01.09.992L5.49 8H.5a.5.5 0 01-.09-.992L.5 7h4.99z" fill="#171B1F" fill-rule="evenodd"/></svg>
